extensions/images/svgs/enter_btn.svg

<svg fill="none" height="13" viewBox="0 0 13 13" width="13" xmlns="http://www.w3.org/2000/svg"><path d="m1.66842 6.83583c.02578-.06649.06443-.12723.11375-.17875l1.625-1.625c.10199-.10199.24033-.1593.38458-.1593s.28258.05731.38458.1593c.102.102.1593.24034.1593.38459 0 .14424-.0573.28258-.1593.38458l-.70416.69875h5.19458c.14366 0 .28143-.05707.38301-.15865.10159-.10158.15865-.23936.15865-.38302v-2.16666c0-.14366.05707-.28144.15866-.38302.10158-.10158.23935-.15865.38301-.15865s.28142.05707.38302.15865.1586.23936.1586.38302v2.16666c0 .43098-.1712.84431-.4759 1.14905-.30475.30475-.71808.47595-1.14905.47595h-5.19458l.70416.69875c.05077.05036.09107.11027.11857.17627.0275.06601.04166.13681.04166.20832 0 .0715-.01416.1423-.04166.20831s-.0678.12591-.11857.17627c-.05035.05077-.11026.09107-.17627.11857s-.13681.04165-.20831.04165c-.07151 0-.14231-.01415-.20831-.04165-.06601-.0275-.12592-.0678-.17627-.11857l-1.625-1.625c-.04932-.05151-.08797-.11226-.11375-.17875-.05418-.13187-.05418-.27979 0-.41167z" fill="#353536"/></svg>

<svg width="13" height="13" viewBox="0 0 13 13" fill="none" xmlns="http://www.w3.org/2000/svg">
<path d="M1.66842 6.83583C1.6942 6.76934 1.73285 6.7086 1.78217 6.65708L3.40717 5.03208C3.50916 4.93009 3.6475 4.87278 3.79175 4.87278C3.936 4.87278 4.07433 4.93009 4.17633 5.03208C4.27833 5.13408 4.33563 5.27242 4.33563 5.41667C4.33563 5.56091 4.27833 5.69925 4.17633 5.80125L3.47217 6.5H8.66675C8.81041 6.5 8.94818 6.44293 9.04976 6.34135C9.15135 6.23977 9.20841 6.10199 9.20841 5.95833V3.79167C9.20841 3.64801 9.26548 3.51023 9.36707 3.40865C9.46865 3.30707 9.60642 3.25 9.75008 3.25C9.89374 3.25 10.0315 3.30707 10.1331 3.40865C10.2347 3.51023 10.2917 3.64801 10.2917 3.79167V5.95833C10.2917 6.38931 10.1205 6.80264 9.8158 7.10738C9.51105 7.41213 9.09772 7.58333 8.66675 7.58333H3.47217L4.17633 8.28208C4.2271 8.33244 4.2674 8.39235 4.2949 8.45835C4.3224 8.52436 4.33656 8.59516 4.33656 8.66667C4.33656 8.73817 4.3224 8.80897 4.2949 8.87498C4.2674 8.94099 4.2271 9.00089 4.17633 9.05125C4.12598 9.10202 4.06607 9.14232 4.00006 9.16982C3.93405 9.19732 3.86325 9.21147 3.79175 9.21147C3.72024 9.21147 3.64944 9.19732 3.58344 9.16982C3.51743 9.14232 3.45752 9.10202 3.40717 9.05125L1.78217 7.42625C1.73285 7.37474 1.6942 7.31399 1.66842 7.2475C1.61424 7.11563 1.61424 6.96771 1.66842 6.83583Z" fill="#353536"/>
</svg>
